src/android-bus.svg

<?xml version="1.0" encoding="utf-8"?>
<!-- Generated by IcoMoon.io -->
<!DOCTYPE svg PUBLIC "-//W3C//DTD SVG 1.1//EN" "http://www.w3.org/Graphics/SVG/1.1/DTD/svg11.dtd">
<svg version="1.1" xmlns="http://www.w3.org/2000/svg" xmlns:xlink="http://www.w3.org/1999/xlink" width="512" height="512" viewBox="0 0 512 512">
<path fill="#000000" d="M80 352c0 19.198 13.864 24.531 26.667 36.271v38.396c0 11.729 9.599 21.334 21.333 21.334h21.333c11.734 0 21.334-9.604 21.334-21.334v-21.333h170.666v21.333c0 11.729 9.604 21.334 21.334 21.334h21.333c11.729 0 21.333-9.604 21.333-21.334v-38.396c12.803-11.74 26.667-18.135 26.667-36.271v-203.666c0-74.667-82.136-84.334-176-84.334s-176 9.667-176 84.334v203.666zM160 367.989c-18.136 0-32-13.864-32-32 0-18.135 13.864-32 32-32s32 13.865 32 32c0 18.136-13.864 32-32 32zM352 367.989c-18.136 0-32-13.864-32-32 0-18.135 13.864-32 32-32s32 13.865 32 32c0 18.136-13.864 32-32 32zM384 245.333h-256v-106.666h256v106.666z"></path>
</svg>

<?xml version="1.0" encoding="utf-8"?>
<!-- Generator: Adobe Illustrator 16.2.1, SVG Export Plug-In . SVG Version: 6.00 Build 0)  -->
<!DOCTYPE svg PUBLIC "-//W3C//DTD SVG 1.1//EN" "http://www.w3.org/Graphics/SVG/1.1/DTD/svg11.dtd">
<svg version="1.1" id="Layer_1" xmlns="http://www.w3.org/2000/svg" xmlns:xlink="http://www.w3.org/1999/xlink" x="0px" y="0px"
	 width="512px" height="512px" viewBox="0 0 512 512" enable-background="new 0 0 512 512" xml:space="preserve">
<g id="Icon_14_">
	<g>
		<g>
			<path d="M80,352c0,19.198,13.864,24.531,26.667,36.271v38.396c0,11.729,9.599,21.334,21.333,21.334h21.333
				c11.734,0,21.334-9.604,21.334-21.334v-21.333h170.666v21.333c0,11.729,9.604,21.334,21.334,21.334H384
				c11.729,0,21.333-9.604,21.333-21.334v-38.396C418.136,376.531,432,370.136,432,352V148.334C432,73.667,349.864,64,256,64
				S80,73.667,80,148.334V352z M160,367.989c-18.136,0-32-13.864-32-32c0-18.135,13.864-32,32-32s32,13.865,32,32
				C192,354.125,178.136,367.989,160,367.989z M352,367.989c-18.136,0-32-13.864-32-32c0-18.135,13.864-32,32-32s32,13.865,32,32
				C384,354.125,370.136,367.989,352,367.989z M384,245.333H128V138.667h256V245.333z"/>
		</g>
	</g>
</g>
</svg>
